X:1
T:Jacob Lake, 11.11.11.11
T:Jacob Lake, 11.11.11.11
T:T. R. Bowden, 1899
T:Public Domain Courtesy of the Cyber Hymnal™
C:T. R. Bowden, 1899
Z:Public Domain
Z:Courtesy of the Cyber Hymnal™
%%score ( 1 2 ) ( 3 4 )
L:1/8
Q:1/4=80
M:2/4
K:D
V:1 treble 
V:2 treble 
V:3 bass 
V:4 bass 
V:1
 [DF][DE] [EG][DF] | ([DA]>[CG]) [CE]2 | [CG][CE] [CB][CA] | [DF]4 | [DF][DE] [EG][DF] | %5
 ([DA]>[CG]) [CE]2 | [CE][EG] [DF][CE] | D4 | [Fd][FA] [DF][A,D] | [A,C]2 [CE]2 | %10
 [CG][CE] [CB][CA] | [DF]4 | [Fd][FA] [DF][A,D] | [A,C]2 [CE]2 | [CG][CE] [CA][A,C] | [A,D]4 |] %16
V:2
 x4 | x4 | x4 | x4 | x4 | x4 | x4 | D4 | x4 | x4 | x4 | x4 | x4 | x4 | x4 | x4 |] %16
V:3
 [D,B,][D,G,] [D,B,][D,A,] | (F,>A,) [A,,A,]2 | [A,,E,][A,,A,] [A,,A,][A,,A,] | [D,A,]4 | %4
 [D,A,][D,G,] [D,B,][D,A,] | (F,>A,) [A,,A,]2 | [A,,A,][A,,A,] [A,,A,][A,,G,] | [D,F,]4 | %8
 [D,D][D,D] [D,A,][D,F,] | [E,G,]2 [A,,G,]2 | [A,,A,][A,,A,] [A,,A,][A,,A,] | [D,A,]4 | %12
 [D,A,][D,A,] [D,A,][D,F,] | [E,G,]2 [A,,G,]2 | [A,,A,][A,,A,] [A,,G,][A,,G,] | [D,F,]4 |] %16
V:4
 x4 | A,,2 x2 | x4 | x4 | x4 | A,,2 x2 | x4 | x4 | x4 | x4 | x4 | x4 | x4 | x4 | x4 | x4 |] %16

